lg/turborepo.svg

<svg viewBox="0 0 512 115" version="1.1" xmlns="http://www.w3.org/2000/svg" preserveAspectRatio="xMidYMid" height="1em" width="1em">
  <defs>
    <linearGradient x1="123.779228%" y1="-3.85716965e-07%" x2="123.779228%" y2="698.962346%" id="a">
      <stop stop-color="#1E90FF" offset="0%"/>
      <stop stop-color="#FF1E56" offset="100%"/>
    </linearGradient>
    <linearGradient x1="11.4859916%" y1="-2.19377472%" x2="11.4859916%" y2="512.39779%" id="b">
      <stop stop-color="#1E90FF" offset="0%"/>
      <stop stop-color="#FF1E56" offset="100%"/>
    </linearGradient>
    <linearGradient x1="-153.743225%" y1="-62.2632095%" x2="-153.743225%" y2="278.479413%" id="c">
      <stop stop-color="#1E90FF" offset="0%"/>
      <stop stop-color="#FF1E56" offset="100%"/>
    </linearGradient>
    <linearGradient x1="-153.743225%" y1="-178.48023%" x2="-153.743225%" y2="162.263952%" id="d">
      <stop stop-color="#1E90FF" offset="0%"/>
      <stop stop-color="#FF1E56" offset="100%"/>
    </linearGradient>
    <linearGradient x1="11.4859916%" y1="-412.397334%" x2="11.4859916%" y2="102.193662%" id="e">
      <stop stop-color="#1E90FF" offset="0%"/>
      <stop stop-color="#FF1E56" offset="100%"/>
    </linearGradient>
    <linearGradient x1="123.779228%" y1="-598.960854%" x2="123.779228%" y2="99.9997513%" id="f">
      <stop stop-color="#1E90FF" offset="0%"/>
      <stop stop-color="#FF1E56" offset="100%"/>
    </linearGradient>
  </defs>
  <g>
    <g transform="translate(419.719229, 0.000000)">
      <path d="M37.2763559,0.0340938041 C24.0927286,-0.42049017 10.9106412,3.67076467 0,12.3078654 L7.27324749,16.399071 C15.9109026,10.0349409 26.8200039,7.30743462 37.2763559,7.76201644 L37.2763559,0.0340938041 Z" fill="url(#a)"/>
      <path d="M75.9155794,17.3082654 C66.8236351,7.76200104 55.0044154,1.8524066 42.2766173,0.488654987 L42.2766173,8.21658285 C53.1872585,10.0349255 62.7334921,15.0353409 70.4610288,22.763278 L75.9155794,17.3082654 Z" fill="url(#b)"/>
      <path d="M92.2807713,54.5841593 C91.826482,42.7649396 87.2805099,30.94572 79.5529731,20.9448892 L74.0968826,26.3999018 C80.4615516,35.0370949 84.0989453,44.5833285 84.5532345,54.5841593 L92.2807713,54.5841593 Z" fill="url(#c)"/>
      <path d="M79.5529731,93.6782881 C87.2805099,83.6774573 91.826482,71.8583916 92.2807713,60.0391719 L84.5532345,60.0391719 C84.0989453,70.0400027 80.4615516,79.5862363 74.0968826,88.2232754 L79.5529731,93.6782881 Z" fill="url(#d)"/>
      <path d="M42.2766173,114.134701 C54.5501262,112.770909 66.8236351,106.861299 75.9155794,97.3150658 L70.4610288,91.8600532 C62.7334921,100.042495 52.7314293,105.042911 42.2766173,106.406702 L42.2766173,114.134701 Z" fill="url(#e)"/>
      <path d="M0,102.315481 C10.9106412,110.95252 24.0927286,115.043741 37.2763559,114.589298 L37.2763559,106.861299 C26.8200039,107.315897 16.3651918,104.588313 7.27324749,98.2242602 L0,102.315481 Z" fill="url(#f)"/>
    </g>
    <path d="M28.5879097,40.6919948 L28.5879097,87.777918 L12.8925711,87.777918 L12.8925711,40.6919948 L0,40.6919948 L0,27.3990301 L41.4804839,27.3990301 L41.4804839,40.6919948 L28.5879097,40.6919948 Z M60.153003,27.3990301 L60.153003,60.2310514 C60.153003,61.9927696 60.2064397,63.8079245 60.3131592,65.6763622 C60.4733154,67.4915172 60.8737059,69.1463619 61.5143307,70.6412045 C62.2083922,72.136047 63.2760489,73.3638599 64.7174547,74.3247971 C66.1588606,75.2322976 68.1876084,75.6861248 70.8033904,75.6861248 C73.4193263,75.6861248 75.4212789,75.2322976 76.8092479,74.3247971 C78.2506538,73.3638599 79.3184644,72.136047 80.012372,70.6412045 C80.7064335,69.1463619 81.106824,67.4915172 81.2135435,65.6763622 C81.3736997,63.8079245 81.4537778,61.9927696 81.4537778,60.2310514 L81.4537778,27.3990301 L97.0690074,27.3990301 L97.0690074,62.3931601 C97.0690074,71.7889392 94.9068987,78.6490145 90.5826813,82.973232 C86.3119006,87.2974494 79.7188549,89.4595581 70.8033904,89.4595581 C61.8880798,89.4595581 55.2682389,87.2974494 50.9440214,82.973232 C46.619804,78.6490145 44.4576953,71.7889392 44.4576953,62.3931601 L44.4576953,27.3990301 L60.153003,27.3990301 Z M121.447245,54.38535 L124.410135,54.38535 C127.506385,54.38535 129.882087,53.7447252 131.537086,52.4634756 C133.191931,51.182226 134.019507,49.3404297 134.019507,46.9380866 C134.019507,44.5357436 133.191931,42.6939473 131.537086,41.4126977 C129.882087,40.1314481 127.506385,39.4908233 124.410135,39.4908233 L121.447245,39.4908233 L121.447245,54.38535 Z M155.960445,87.777918 L136.42185,87.777918 L121.447245,64.5552688 L121.447245,87.777918 L105.751937,87.777918 L105.751937,27.3990301 L130.175758,27.3990301 C133.539038,27.3990301 136.475133,27.9061401 138.984349,28.920514 C141.493412,29.8814512 143.548801,31.2161375 145.150363,32.924419 C146.805208,34.6327005 148.033175,36.6080117 148.833956,38.8501985 C149.688019,41.0923853 150.115205,43.4947283 150.115205,46.0572275 C150.115205,50.6483206 148.994112,54.38535 146.751925,57.2681616 C144.563021,60.0975365 141.306614,62.0194109 136.982397,63.0337849 L155.960445,87.777918 Z M174.216712,75.6060467 L177.66007,75.6060467 C181.611616,75.6060467 184.440529,75.0989367 186.148349,74.0845628 C187.857708,73.0701888 188.710848,71.4419855 188.710848,69.1997986 C188.710848,66.9576118 187.857708,65.3294084 186.148349,64.3150345 C184.440529,63.3006606 181.611616,62.7935506 177.66007,62.7935506 L174.216712,62.7935506 L174.216712,75.6060467 Z M174.216712,51.1021479 L177.099523,51.1021479 C182.012007,51.1021479 184.466709,49.1536321 184.466709,45.2564465 C184.466709,41.359261 182.012007,39.4107452 177.099523,39.4107452 L174.216712,39.4107452 L174.216712,51.1021479 Z M158.521404,27.3990301 L181.904209,27.3990301 C187.457318,27.3990301 191.673738,28.7337164 194.556549,31.4029351 C197.439361,34.0721538 198.880767,37.9159026 198.880767,42.9341816 C198.880767,45.9771494 198.32022,48.5130073 197.199127,50.5416012 C196.131932,52.5169123 194.476471,54.1985524 192.234284,55.5865215 C194.476471,56.0135534 196.372166,56.6809736 197.919829,57.588474 C199.521391,58.4426918 200.802641,59.5103485 201.763578,60.7915981 C202.778414,62.0728477 203.499117,63.5142535 203.925687,65.1158155 C204.353797,66.7173775 204.566312,68.425659 204.566312,70.240814 C204.566312,73.0701888 204.059664,75.5794053 203.044828,77.7681554 C202.083891,79.9569055 200.696384,81.7987018 198.880767,83.2935444 C197.119048,84.7883869 194.95694,85.9094803 192.39444,86.6568246 C189.831941,87.4041689 186.94913,87.777918 183.746006,87.777918 L158.521404,87.777918 L158.521404,27.3990301 Z M223.18755,57.588474 C223.18755,59.9908171 223.640299,62.2063625 224.548878,64.2349564 C225.455916,66.2635503 226.683267,68.0252685 228.23247,69.520111 C229.780134,71.0149536 231.568031,72.1893297 233.597703,73.0435475 C235.679734,73.8443285 237.868022,74.244719 240.164107,74.244719 C242.458653,74.244719 244.620762,73.8443285 246.650434,73.0435475 C248.732464,72.1893297 250.546541,71.0149536 252.095744,69.520111 C253.697306,68.0252685 254.950837,66.2635503 255.859415,64.2349564 C256.766454,62.2063625 257.220743,59.9908171 257.220743,57.588474 C257.220743,55.186131 256.766454,52.9705856 255.859415,50.9419917 C254.950837,48.9133978 253.697306,47.1516796 252.095744,45.656837 C250.546541,44.1619945 248.732464,43.0142597 246.650434,42.2134787 C244.620762,41.359261 242.458653,40.9322291 240.164107,40.9322291 C237.868022,40.9322291 235.679734,41.359261 233.597703,42.2134787 C231.568031,43.0142597 229.780134,44.1619945 228.23247,45.656837 C226.683267,47.1516796 225.455916,48.9133978 224.548878,50.9419917 C223.640299,52.9705856 223.18755,55.186131 223.18755,57.588474 Z M206.771539,57.588474 C206.771539,53.1041004 207.5985,48.9400392 209.253961,45.0962903 C210.907881,41.1991048 213.203967,37.8091832 216.140677,34.9263715 C219.075848,32.0435599 222.573105,29.8013731 226.630908,28.1998111 C230.741071,26.5448123 235.251624,25.71739 240.164107,25.71739 C245.021152,25.71739 249.505526,26.5448123 253.617228,28.1998111 C257.727391,29.8013731 261.250827,32.0435599 264.187538,34.9263715 C267.176607,37.8091832 269.498872,41.1991048 271.154332,45.0962903 C272.808253,48.9400392 273.636754,53.1041004 273.636754,57.588474 C273.636754,62.0728477 272.808253,66.2635503 271.154332,70.1607359 C269.498872,74.0044847 267.176607,77.3677649 264.187538,80.2505765 C261.250827,83.1333882 257.727391,85.4022163 253.617228,87.0572151 C249.505526,88.6587771 245.021152,89.4595581 240.164107,89.4595581 C235.251624,89.4595581 230.741071,88.6587771 226.630908,87.0572151 C222.573105,85.4022163 219.075848,83.1333882 216.140677,80.2505765 C213.203967,77.3677649 210.907881,74.0044847 209.253961,70.1607359 C207.5985,66.2635503 206.771539,62.0728477 206.771539,57.588474 Z M295.242441,54.38535 L298.205331,54.38535 C301.300657,54.38535 303.676821,53.7447252 305.332282,52.4634756 C306.986203,51.182226 307.814703,49.3404297 307.814703,46.9380866 C307.814703,44.5357436 306.986203,42.6939473 305.332282,41.4126977 C303.676821,40.1314481 301.300657,39.4908233 298.205331,39.4908233 L295.242441,39.4908233 L295.242441,54.38535 Z M329.756102,87.777918 L310.217046,87.777918 L295.242441,64.5552688 L295.242441,87.777918 L279.547133,87.777918 L279.547133,27.3990301 L303.970954,27.3990301 C307.334234,27.3990301 310.269405,27.9061401 312.779545,28.920514 C315.288146,29.8814512 317.343997,31.2161375 318.945559,32.924419 C320.59948,34.6327005 321.828371,36.6080117 322.629152,38.8501985 C323.482291,41.0923853 323.910401,43.4947283 323.910401,46.0572275 C323.910401,50.6483206 322.789308,54.38535 320.547121,57.2681616 C318.357293,60.0975365 315.10181,62.0194109 310.777593,63.0337849 L329.756102,87.777918 Z M366.670567,40.6919948 L348.012369,40.6919948 L348.012369,50.7818355 L365.629552,50.7818355 L365.629552,64.0748002 L348.012369,64.0748002 L348.012369,74.4849533 L366.670567,74.4849533 L366.670567,87.777918 L332.317062,87.777918 L332.317062,27.3990301 L366.670567,27.3990301 L366.670567,40.6919948 Z M389.677621,55.1060529 L394.882698,55.1060529 C400.648321,55.1060529 403.531133,52.5969904 403.531133,47.5787115 C403.531133,42.5604325 400.648321,40.05137 394.882698,40.05137 L389.677621,40.05137 L389.677621,55.1060529 Z M389.677621,87.777918 L373.982314,87.777918 L373.982314,27.3990301 L398.966681,27.3990301 C405.74714,27.3990301 410.924497,29.1607483 414.501832,32.6841847 C418.131526,36.2076212 419.947143,41.1724634 419.947143,47.5787115 C419.947143,53.9849595 418.131526,58.9498018 414.501832,62.4732382 C410.924497,65.9966746 405.74714,67.7583928 398.966681,67.7583928 L389.677621,67.7583928 L389.677621,87.777918 Z M437.943156,57.588474 C437.943156,59.9908171 438.397446,62.2063625 439.304484,64.2349564 C440.211523,66.2635503 441.440414,68.0252685 442.988077,69.520111 C444.53574,71.0149536 446.325178,72.1893297 448.35331,73.0435475 C450.43534,73.8443285 452.623628,74.244719 454.919714,74.244719 C457.215799,74.244719 459.377908,73.8443285 461.40604,73.0435475 C463.488071,72.1893297 465.303688,71.0149536 466.851351,69.520111 C468.452913,68.0252685 469.707983,66.2635503 470.615022,64.2349564 C471.52206,62.2063625 471.976349,59.9908171 471.976349,57.588474 C471.976349,55.186131 471.52206,52.9705856 470.615022,50.9419917 C469.707983,48.9133978 468.452913,47.1516796 466.851351,45.656837 C465.303688,44.1619945 463.488071,43.0142597 461.40604,42.2134787 C459.377908,41.359261 457.215799,40.9322291 454.919714,40.9322291 C452.623628,40.9322291 450.43534,41.359261 448.35331,42.2134787 C446.325178,43.0142597 444.53574,44.1619945 442.988077,45.656837 C441.440414,47.1516796 440.211523,48.9133978 439.304484,50.9419917 C438.397446,52.9705856 437.943156,55.186131 437.943156,57.588474 Z M421.527146,57.588474 C421.527146,53.1041004 422.354106,48.9400392 424.009567,45.0962903 C425.665028,41.1991048 427.959573,37.8091832 430.896284,34.9263715 C433.832994,32.0435599 437.328711,29.8013731 441.386515,28.1998111 C445.496677,26.5448123 450.00877,25.71739 454.919714,25.71739 C459.778299,25.71739 464.262672,26.5448123 468.372835,28.1998111 C472.482997,29.8013731 476.006434,32.0435599 478.943144,34.9263715 C481.932213,37.8091832 484.254478,41.1991048 485.909939,45.0962903 C487.5654,48.9400392 488.39236,53.1041004 488.39236,57.588474 C488.39236,62.0728477 487.5654,66.2635503 485.909939,70.1607359 C484.254478,74.0044847 481.932213,77.3677649 478.943144,80.2505765 C476.006434,83.1333882 472.482997,85.4022163 468.372835,87.0572151 C464.262672,88.6587771 459.778299,89.4595581 454.919714,89.4595581 C450.00877,89.4595581 445.496677,88.6587771 441.386515,87.0572151 C437.328711,85.4022163 433.832994,83.1333882 430.896284,80.2505765 C427.959573,77.3677649 425.665028,74.0044847 424.009567,70.1607359 C422.354106,66.2635503 421.527146,62.0728477 421.527146,57.588474 Z" fill="#000000"/>
  </g>
</svg>

<svg viewBox="0 0 512 115" xmlns="http://www.w3.org/2000/svg" preserveAspectRatio="xMidYMid" height="1em" width="1em">
  <defs>
    <linearGradient x1="123.779%" y1="0%" x2="123.779%" y2="698.962%" id="a">
      <stop stop-color="#1E90FF" offset="0%"/>
      <stop stop-color="#FF1E56" offset="100%"/>
    </linearGradient>
    <linearGradient x1="11.486%" y1="-2.194%" x2="11.486%" y2="512.398%" id="b">
      <stop stop-color="#1E90FF" offset="0%"/>
      <stop stop-color="#FF1E56" offset="100%"/>
    </linearGradient>
    <linearGradient x1="-153.743%" y1="-62.263%" x2="-153.743%" y2="278.479%" id="c">
      <stop stop-color="#1E90FF" offset="0%"/>
      <stop stop-color="#FF1E56" offset="100%"/>
    </linearGradient>
    <linearGradient x1="-153.743%" y1="-178.48%" x2="-153.743%" y2="162.264%" id="d">
      <stop stop-color="#1E90FF" offset="0%"/>
      <stop stop-color="#FF1E56" offset="100%"/>
    </linearGradient>
    <linearGradient x1="11.486%" y1="-412.397%" x2="11.486%" y2="102.194%" id="e">
      <stop stop-color="#1E90FF" offset="0%"/>
      <stop stop-color="#FF1E56" offset="100%"/>
    </linearGradient>
    <linearGradient x1="123.779%" y1="-598.961%" x2="123.779%" y2="100%" id="f">
      <stop stop-color="#1E90FF" offset="0%"/>
      <stop stop-color="#FF1E56" offset="100%"/>
    </linearGradient>
  </defs>
  <path d="M37.276.034C24.093-.42 10.911 3.671 0 12.308l7.273 4.091c8.638-6.364 19.547-9.092 30.003-8.637V.034Z" fill="url(#a)" transform="translate(419.72)"/>
  <path d="M75.916 17.308C66.824 7.762 55.004 1.852 42.276.488v7.729c10.911 1.818 20.457 6.818 28.185 14.546l5.455-5.455Z" fill="url(#b)" transform="translate(419.72)"/>
  <path d="M92.28 54.584c-.454-11.82-5-23.638-12.727-33.64L74.097 26.4c6.365 8.637 10.002 18.183 10.456 28.184h7.728Z" fill="url(#c)" transform="translate(419.72)"/>
  <path d="M79.553 93.678c7.728-10 12.273-21.82 12.728-33.639h-7.728C84.1 70.04 80.462 79.586 74.097 88.223l5.456 5.455Z" fill="url(#d)" transform="translate(419.72)"/>
  <path d="M42.277 114.135c12.273-1.364 24.547-7.274 33.639-16.82L70.46 91.86c-7.728 8.182-17.73 13.183-28.184 14.547v7.728Z" fill="url(#e)" transform="translate(419.72)"/>
  <path d="M0 102.315c10.91 8.638 24.093 12.729 37.276 12.274v-7.728c-10.456.455-20.91-2.273-30.003-8.637L0 102.315Z" fill="url(#f)" transform="translate(419.72)"/>
  <path d="M28.588 40.692v47.086H12.893V40.692H0V27.399h41.48v13.293H28.588Zm31.565-13.293v32.832c0 1.762.053 3.577.16 5.445.16 1.816.56 3.47 1.201 4.965.694 1.495 1.762 2.723 3.203 3.684 1.442.907 3.47 1.361 6.086 1.361s4.618-.454 6.006-1.361c1.442-.961 2.51-2.189 3.203-3.684.694-1.495 1.095-3.15 1.202-4.965.16-1.868.24-3.683.24-5.445V27.4h15.615v34.994c0 9.396-2.162 16.256-6.486 20.58-4.271 4.324-10.864 6.487-19.78 6.487-8.915 0-15.535-2.163-19.859-6.487-4.324-4.324-6.486-11.184-6.486-20.58V27.4h15.695Zm61.294 26.986h2.963c3.096 0 5.472-.64 7.127-1.922 1.655-1.28 2.483-3.123 2.483-5.525s-.828-4.244-2.483-5.525c-1.655-1.282-4.03-1.922-7.127-1.922h-2.963v14.894Zm34.513 33.393h-19.538l-14.975-23.223v23.223h-15.695V27.399h24.424c3.363 0 6.3.507 8.808 1.522 2.51.96 4.565 2.295 6.166 4.003a16.3 16.3 0 0 1 3.684 5.926c.854 2.242 1.281 4.645 1.281 7.207 0 4.591-1.12 8.328-3.363 11.211-2.189 2.83-5.445 4.751-9.77 5.766l18.978 24.744Zm18.257-12.172h3.443c3.952 0 6.78-.507 8.488-1.521 1.71-1.015 2.563-2.643 2.563-4.885s-.853-3.87-2.563-4.885c-1.707-1.014-4.536-1.521-8.488-1.521h-3.443v12.812Zm0-24.504h2.883c4.912 0 7.367-1.948 7.367-5.846 0-3.897-2.455-5.845-7.367-5.845h-2.883v11.691ZM158.52 27.4h23.383c5.553 0 9.77 1.335 12.653 4.004 2.882 2.67 4.324 6.513 4.324 11.531 0 3.043-.56 5.579-1.682 7.608-1.067 1.975-2.723 3.657-4.965 5.045 2.242.427 4.138 1.094 5.686 2.001 1.601.855 2.883 1.922 3.844 3.204a11.764 11.764 0 0 1 2.162 4.324c.428 1.601.64 3.31.64 5.125 0 2.83-.506 5.338-1.521 7.527a14.71 14.71 0 0 1-4.164 5.526c-1.762 1.494-3.924 2.615-6.487 3.363-2.562.747-5.445 1.12-8.648 1.12H158.52V27.4Zm64.667 30.19c0 2.402.452 4.617 1.36 6.646.908 2.029 2.135 3.79 3.684 5.285a17.315 17.315 0 0 0 5.366 3.524c2.082.8 4.27 1.2 6.566 1.2 2.295 0 4.457-.4 6.486-1.2 2.082-.855 3.897-2.029 5.446-3.524a16.218 16.218 0 0 0 3.763-5.285c.907-2.029 1.362-4.244 1.362-6.647 0-2.402-.455-4.617-1.362-6.646a16.218 16.218 0 0 0-3.763-5.285c-1.55-1.495-3.364-2.643-5.446-3.444-2.03-.854-4.191-1.28-6.486-1.28a17.13 17.13 0 0 0-6.566 1.28 16.207 16.207 0 0 0-5.366 3.444c-1.549 1.495-2.776 3.256-3.683 5.285-.909 2.029-1.361 4.244-1.361 6.646Zm-16.416 0c0-4.485.827-8.649 2.482-12.493 1.654-3.897 3.95-7.287 6.887-10.17 2.935-2.882 6.432-5.125 10.49-6.726 4.11-1.655 8.62-2.483 13.533-2.483 4.857 0 9.342.828 13.453 2.483 4.11 1.601 7.634 3.844 10.57 6.726 2.99 2.883 5.312 6.273 6.967 10.17 1.654 3.844 2.483 8.008 2.483 12.492 0 4.485-.829 8.676-2.483 12.573a30.802 30.802 0 0 1-6.966 10.09c-2.937 2.882-6.46 5.151-10.57 6.806-4.112 1.602-8.597 2.403-13.454 2.403-4.912 0-9.423-.801-13.533-2.403-4.058-1.655-7.555-3.924-10.49-6.806-2.937-2.883-5.233-6.247-6.887-10.09-1.655-3.897-2.482-8.088-2.482-12.573Zm88.47-3.204h2.963c3.096 0 5.472-.64 7.127-1.922 1.654-1.28 2.483-3.123 2.483-5.525s-.829-4.244-2.483-5.525c-1.655-1.282-4.031-1.922-7.127-1.922h-2.963v14.894Zm34.514 33.393h-19.539l-14.975-23.223v23.223h-15.695v-60.38h24.424c3.363 0 6.298.507 8.809 1.522 2.508.96 4.564 2.295 6.166 4.003a16.313 16.313 0 0 1 3.683 5.926c.853 2.242 1.281 4.645 1.281 7.207 0 4.591-1.12 8.328-3.363 11.211-2.19 2.83-5.445 4.751-9.77 5.766l18.98 24.744Zm36.915-47.086h-18.659v10.09h17.618v13.293h-17.618v10.41h18.659v13.293h-34.354v-60.38h34.354v13.293Zm23.007 14.414h5.205c5.765 0 8.648-2.509 8.648-7.527 0-5.019-2.883-7.528-8.648-7.528h-5.205v15.055Zm0 32.672h-15.696v-60.38h24.985c6.78 0 11.957 1.762 15.535 5.285 3.63 3.524 5.445 8.488 5.445 14.895 0 6.406-1.815 11.37-5.445 14.894-3.578 3.524-8.755 5.285-15.535 5.285h-9.29v20.02Zm48.265-30.19c0 2.403.454 4.618 1.361 6.647a16.807 16.807 0 0 0 3.684 5.285 17.333 17.333 0 0 0 5.365 3.524c2.082.8 4.27 1.2 6.567 1.2 2.296 0 4.458-.4 6.486-1.2 2.082-.855 3.898-2.029 5.445-3.524a16.195 16.195 0 0 0 3.764-5.285c.907-2.029 1.361-4.244 1.361-6.647 0-2.402-.454-4.617-1.361-6.646a16.195 16.195 0 0 0-3.764-5.285c-1.547-1.495-3.363-2.643-5.445-3.444-2.028-.854-4.19-1.28-6.486-1.28a17.13 17.13 0 0 0-6.567 1.28 16.217 16.217 0 0 0-5.365 3.444 16.807 16.807 0 0 0-3.684 5.285c-.907 2.029-1.36 4.244-1.36 6.646Zm-16.416 0c0-4.484.827-8.648 2.483-12.492 1.655-3.897 3.95-7.287 6.886-10.17 2.937-2.882 6.433-5.125 10.49-6.726 4.11-1.655 8.623-2.483 13.534-2.483 4.858 0 9.343.828 13.453 2.483 4.11 1.601 7.633 3.844 10.57 6.726 2.99 2.883 5.311 6.273 6.967 10.17 1.655 3.844 2.482 8.008 2.482 12.492 0 4.485-.827 8.676-2.482 12.573a30.802 30.802 0 0 1-6.967 10.09c-2.937 2.882-6.46 5.151-10.57 6.806-4.11 1.602-8.595 2.403-13.453 2.403-4.911 0-9.423-.801-13.533-2.403-4.058-1.655-7.554-3.924-10.49-6.806-2.937-2.883-5.232-6.247-6.887-10.09-1.656-3.897-2.483-8.088-2.483-12.573Z"/>
</svg>
